X:1
T:In a Little While We’re Going Home
T:In a Little While We’re Going Home
T:Eliza Edmunds Hewitt
T:Eliza Edmunds Hewitt, 1899
T:Public Domain Courtesy of the Cyber Hymnal™
T:Public Domain Courtesy of the Cyber Hymnal™
C:Eliza Edmunds Hewitt
Z:Public Domain
Z:Courtesy of the Cyber Hymnal™
%%score ( 1 2 ) ( 3 4 )
L:1/8
Q:1/4=100
M:4/4
K:Eb
V:1 treble 
V:2 treble 
V:3 bass 
V:4 bass 
V:1
 B,[B,E] | [EG]2 [EG]2 [EG]2 [B,F][B,E] | [EG][B,E][B,E][A,C] B,2 [B,E][B,F] | %3
w: 1.~Let us|sing a song that will|cheer us by the way, In a|
w: 2.~We will|do the work that our|hands may find to do, In a|
w: 3.~We will|smooth the path for some|wea- ry, way- worn feet, In a|
w: 4.~There’s a|rest be- yond, there’s re-|lief from ev- ery care, In a|
 [EG][EB][EB][Ec] [EB]2 [EG]2 | [DF]6 [DF][EG] | [FA]2 [FA]2 [FA]2 [EG][DF] | %6
w: lit- tle while we’re go- ing|home; For the|night will end in the|
w: lit- tle while we’re go- ing|home; And the|grace of God will our|
w: lit- tle while we’re go- ing|home; And may|lov- ing hearts spread a-|
w: lit- tle while we’re go- ing|home; And no|tears shall fall in that|
 [EG][EG][EG][EG] [EG]2 [B,F][B,E] | [CF][CF][CF][CF] [B,E]2 [B,D]2 | [B,E]6 ||"^Refrain" EE | %10
w: ev- er- last- ing day, In a|lit- tle while we’re go- ing|home.||
w: dai- ly strength re- new, In a|lit- tle while we’re go- ing|home.|In a|
w: round an in- fluence sweet! In a|lit- tle while we’re go- ing|home.||
w: ci- ty bright and fair, In a|lit- tle while we’re go- ing|home.||
 [B,D][DF] F4 FF | [B,E][EG] G4 [EG][EA] | [EB]3 [EB] [DA]2 [EG]2 | [DF]6 [EG][EA] | %14
w: ||||
w: lit- tle while, In a|lit- tle while, We shall|cross the bil- low’s|foam; We shall|
w: ||||
w: ||||
 [EB]2 [EB]2 [EB]2 [EA][EG] | [Ec][Ec][Ec][Ec] !fermata![Ee]2 E[EF] | %16
w: ||
w: meet at last, When the|storm- y winds are past, In a|
w: ||
w: ||
 [EG][EB][EB][EA] [EG]2 [DF]2 | [B,E]6 |] %18
w: ||
w: lit- tle while we’re go- ing|home.|
w: ||
w: ||
V:2
 x2 | x8 | x4 B,2 x2 | x8 | x8 | x8 | x8 | x8 | x6 || x2 | x2 (DD D2) x2 | x2 (EE E2) x2 | x8 | %13
 x8 | x8 | x6 E x | x8 | x6 |] %18
V:3
 [E,G,][E,G,] | [E,B,]2 [E,B,]2 [E,B,]2 [E,A,][E,G,] | %2
w: ~ ~|~ ~ ~ ~ ~|
 [E,B,][E,G,][E,G,][E,A,] [E,G,]2 [E,G,][E,A,] | [E,B,][E,G,][E,G,][E,A,] [E,G,]2 [E,B,]2 | %4
w: ~ ~ ~ ~ ~ ~ ~|~ ~ ~ ~ ~ ~|
 [B,,B,]6 [B,,B,][B,,B,] | [B,,B,]2 [B,,B,]2 [B,,B,]2 [B,,B,][B,,B,] | %6
w: ~ ~ ~|~ ~ ~ ~ ~|
 [E,B,][E,B,][E,B,][E,B,] [E,B,]2 [E,A,][E,G,] | [A,,A,][A,,A,][A,,A,][A,,A,] [B,,G,]2 [B,,F,]2 | %8
w: ~ ~ ~ ~ ~ ~ ~|~ ~ ~ ~ ~ ~|
 [E,G,]6 || G,G, | [B,,F,][B,,A,] A,4 x2 | [E,G,][E,B,] B,4 [E,B,][F,B,] | %12
w: ~|~ ~|In a lit-|tle while, ~ ~ In|
 [G,B,]3 [G,B,] [F,B,]2 [E,B,]2 | [B,,B,]6 [E,B,][E,A,] | [E,G,]2 [E,G,]2 [E,G,]2 [E,C][E,B,] | %15
w: a lit- tle while,|||
 [A,,A,][A,,A,][A,,A,][A,,A,] [A,,C]2 [=A,,C][A,,C] | %16
w: |
 [B,,B,][B,,G,][B,,G,][B,,C] [B,,B,]2 [B,,A,]2 | [E,G,]6 |] %18
w: ||
V:4
 x2 | x8 | x8 | x8 | x8 | x8 | x8 | x8 | x6 || x2 | x2 B,,B,, B,,2 A,A, | x2 E,E, E,2 x2 | x8 | %13
 x8 | x8 | x8 | x8 | x6 |] %18

